!!!!SEGMENT: pl-wnifc--6730-n--001-027_sowinski-wojciech--chants-religieux-de-la-pologne-op-93-chant-a-saint-florian-la-pure-voix.krn
!!!cenid: 18xx:4041
!!!COM: Sowiński, Wojciech
!!!COM-rismID: pe30008543
!!!CDT: ~1803-1880/03/05
!!!CNT: Polish
!!!GTL: Chants religieux de la Pologne op. 93
!!!OTL: Chant a Saint Florian/La pure voix
!!!OMV: 027
!!!PDT: 1830
!!!AGN:
!!!YEC: Copyright 2022 Narodowy Instytut Fryderyka Chopina (https://polishscores.org)
!!!YEM: License CC-BY-4.0 (https://creativecommons.org/licenses/by/4.0)
!!!SMS-siglum: PL-Wnifc
!!!SMS-shelfmark: 6730/n
!!!SMS-shelfwork: 001-027 G
!!!SMS-variant:
!!!SMS-altvar:
!!!NIFC-rismSourceID: 1001138221
!!!NIFC-rismChildID: 1001138253
!!!NIFC-islandoraID: nifc:213350
!!!URL-pdf-islandora: https://repozytorium.nifc.pl/islandora/object/nifc%3A213350/datastream/PDF/view
!!!URL-scan: https://polish.musicsources.pl/pl/lokalizacje/galeria/druki-muzyczne/16913 @EN{Scan on Polish Music Sources Website} @PL{Skany w portalu Dziedzictwo Muzyki Polskiej w otwartym dostępie}
!!!IIIF:
!!!ONB-nifc: UWAGA: str. 106-109
!!!AIN: 1 calto 2 organ 2 soprn
!!!key: A
**kern	**kern	**dynam	**kern	**text	**dynam	**mxhm	**kern	**text	**dynam	**mxhm	**kern	**text	**dynam	**mxhm
*part5	*part4	*	*part3	*	*	*part3	*part2	*	*	*part2	*part1	*	*	*part1
*staff5	*staff4	*	*staff3	*	*	*	*staff2	*	*	*	*staff1	*	*	*
*I"Organo	*I"ORGUE.	*	*I"CONTRALTO.	*	*	*	*I"2.e DESSUS.	*	*	*	*I"1.er DESSUS.	*	*	*
*	*I'org	*	*I'Contra-A	*	*	*	*I'S 2	*	*	*	*I'S 1	*	*	*
*Iorgan	*Iorgan	*	*Icalto	*	*	*	*Isoprn	*	*	*	*Isoprn	*	*	*
*ICklav	*ICklav	*	*ICvox	*	*	*	*ICvox	*	*	*	*ICvox	*	*	*
*clefF4	*clefG2	*	*clefG2	*	*	*	*clefG2	*	*	*	*clefG2	*	*	*
*k[f#c#g#]	*k[f#c#g#]	*	*k[f#c#g#]	*	*	*	*k[f#c#g#]	*	*	*	*k[f#c#g#]	*	*	*
*A:	*A:	*	*A:	*	*	*	*A:	*	*	*	*A:	*	*	*
*M3/2	*M3/2	*	*M3/2	*	*	*	*M3/2	*	*	*	*M3/2	*	*	*
=1	=1	=1	=1	=1	=1	=1	=1	=1	=1	=1	=1	=1	=1	=1
!	!LO:TX:b:i:t=sostenuto.	!	!	!	!	!	!	!	!	!	!	!	!	!
!	!LO:TX:a:B:t=Religioso.	!	!	!	!	!	!	!	!	!	!LO:TX:a:B:t=Religioso.	!	!	!
4AA/ 4C#	2.a/	p	1.r	.	.	.	1.r	.	.	.	1.r	.	.	.
4E\	.	.	.	.	.	.	.	.	.	.	.	.	.	.
2A\	.	.	.	.	.	.	.	.	.	.	.	.	.	.
.	4cc#\	.	.	.	.	.	.	.	.	.	.	.	.	.
4G#\	4b\	.	.	.	.	.	.	.	.	.	.	.	.	.
4F#\	4a/	.	.	.	.	.	.	.	.	.	.	.	.	.
=2	=2	=2	=2	=2	=2	=2	=2	=2	=2	=2	=2	=2	=2	=2
[1E	4g#/	.	1.r	.	.	.	1.r	.	.	.	1.r	.	.	.
.	4f#/	.	.	.	.	.	.	.	.	.	.	.	.	.
.	2e/	.	.	.	.	.	.	.	.	.	.	.	.	.
4E\]	4f#/	.	.	.	.	.	.	.	.	.	.	.	.	.
4D\	4g#/	.	.	.	.	.	.	.	.	.	.	.	.	.
=3	=3	=3	=3	=3	=3	=3	=3	=3	=3	=3	=3	=3	=3	=3
4C#/	[2a/	<	1.r	.	.	.	1.r	.	.	.	1.r	.	.	.
4BB/	.	.	.	.	.	.	.	.	.	.	.	.	.	.
4AA/	4a/]	.	.	.	.	.	.	.	.	.	.	.	.	.
4GG#/	4b/	.	.	.	.	.	.	.	.	.	.	.	.	.
4AA/	4cc#\	.	.	.	.	.	.	.	.	.	.	.	.	.
4FF#/	4dd\	[[	.	.	.	.	.	.	.	.	.	.	.	.
=4	=4	=4	=4	=4	=4	=4	=4	=4	=4	=4	=4	=4	=4	=4
2EE/	2a/ 2cc#	>	1.r	.	.	.	1.r	.	.	.	1.r	.	.	.
2E\	2e/ 2g# 2b	.	.	.	.	.	.	.	.	.	.	.	.	.
2r	2r	]	.	.	.	.	.	.	.	.	.	.	.	.
=5	=5	=5	=5	=5	=5	=5	=5	=5	=5	=5	=5	=5	=5	=5
*^	*	*	*	*	*	*	*	*	*	*	*	*	*	*
2A/	2AA\	2c#/ 2a	.	2c#^>/	La	.	.	2e^>/	La	.	.	2a^>/	La	.	.
!	!	!	!	!	!	!LO:DY:a	!	!	!	!LO:DY:a	!	!	!	!LO:DY:a	!
2A/	2AA\	4c#/ 4e	p	4c#/	pu-	p	.	4e/	pu-	p	.	4e/	pu-	p	.
.	.	4e/ 4cc#	.	4e/	-re	.	.	4e/	-re	.	.	4cc#/	-re	.	.
4G#/	2AA\	4d/ 4b	.	4d/	voix	.	.	4e/	voix	.	.	4b/	voix	.	.
4A/	.	4c#/ 4a	.	4c#/	de	.	.	4e/	de	.	.	4a/	de	.	.
!LO:LB:g=original	!LO:LB:g=original	!LO:LB:g=original	!	!LO:LB:g=original	!	!	!	!LO:LB:g=original	!	!	!	!LO:LB:g=original	!	!	!
*v	*v	*	*	*	*	*	*	*	*	*	*	*	*	*	*
=6	=6	=6	=6	=6	=6	=6	=6	=6	=6	=6	=6	=6	=6	=6
2EE/ 2E	2e/ 2g# 2b	.	2e/	an-	.	.	2g#/	an-	.	.	2dd\	an-	.	.
2EE/ 2E	4e/ 4g# 4b	.	4e/	-ges	.	.	4g#/	-ges	.	.	4cc#\	-ges	.	.
.	4e/ 4b 4dd	.	4e/	sain-	.	.	4b/	sain-	.	.	4dd\	sain-	.	.
2EE/ 2E	4e/ 4a 4cc#	.	4e/	-tes	.	.	4a/	-tes	.	.	4cc#\	-tes	.	.
.	4e/ 4g# 4b	.	4e/	pha-	.	.	4g#/	pha-	.	.	4b\	pha-	.	.
=7	=7	=7	=7	=7	=7	=7	=7	=7	=7	=7	=7	=7	=7	=7
!	!	!	!	!	!LO:DY:a	!	!	!	!LO:DY:a	!	!	!	!LO:DY:a	!
2AA\ 2A	2e/ 2a 2cc#	.	2a/	-lan-	<	.	2a/	-lan-	<	.	2cc#\	-lan-	<	.
4AA\ 4A	4e/ 4a 4cc#	.	4a/	-ges	.	.	4a/	-ges	.	.	4cc#\	-ges	.	.
4C#\	4a\ 4ee	>	4c#/	dit	[	.	4a/	dit	[	.	4ff#\	dit	[	.
4D\	4a\ 4ee	.	4c#/	tes	.	.	4a/	tes	.	.	4ee\	tes	.	.
4D\	4f#/ 4b 4dd	]]	4d/	lou-	.	.	4f#/	lou-	.	.	4dd\	lou-	.	.
=8	=8	=8	=8	=8	=8	=8	=8	=8	=8	=8	=8	=8	=8	=8
!	!LO:TX:b:i:t=rall col canto.	!	!	!	!	!	!	!	!	!	!	!	!	!
[2E\	2e/ 2g# 2b	p	2e/	-an-	.	.	2g#/	-an-	.	.	2b\	-an-	.	.
4E\]	(4e/ 4g# 4b	.	4e/	-ges	.	.	4g#/	-ges	.	.	4b\	-ges	.	.
!	!	!	!LO:TX:a:i:t=rall.	!	!	!	!LO:TX:a:i:t=rall.	!	!	!	!LO:TX:a:i:t=rall.	!	!	!
4EE/ 4E	4e/ 4a 4cc#	.	4e/	Roi	.	.	4a/	Roi	.	.	4cc#\	Roi	.	.
4EE/ 4E	4d/ 4g# 4b	.	4d/	des	.	.	4g#/	des	.	.	4b\	des	.	.
!	!	!	!	!	!LO:DY:a	!	!	!	!LO:DY:a	!	!	!	!LO:DY:a	!
4AA;\ 4A	4c#;/) 4a	.	4c#;/	Rois	p	.	4a;/	Rois	p	.	4a;/	Rois	p	.
=9	=9	=9	=9	=9	=9	=9	=9	=9	=9	=9	=9	=9	=9	=9
!	!	!	!	!	!LO:DY:a	!	!	!	!LO:DY:a	!	!	!	!LO:DY:a	!
2AA\ 2A	2e/ 2cc# 2ee	f	2a/	Et	f	.	2cc#\	Et	f	.	2ee\	Et	f	.
4AA\ 4A	4e/ 4cc# 4ee	.	4a/	du	.	.	4cc#\	du	.	.	4ee\	du	.	.
4AA\ 4E 4G#	4e/ 4b 4dd	.	4e/	fond	.	.	4b/	fond	.	.	4dd\	fond	.	.
4AA\ 4E 4G#	4e/ 4b 4dd	.	4g#/	de	.	.	4b/	de	.	.	4dd\	de	.	.
4AA\ 4A	4e/ 4a 4cc#	.	4a/	la	.	.	4a/	la	.	.	4cc#\	la	.	.
!LO:LB:g=original	!LO:LB:g=original	!	!LO:LB:g=original	!	!	!	!LO:LB:g=original	!	!	!	!LO:LB:g=original	!	!	!
=10	=10	=10	=10	=10	=10	=10	=10	=10	=10	=10	=10	=10	=10	=10
2D\	2a\ 2ff#	sf	2d^>/	ter-	.	.	2a/	ter-	.	.	2ff#^\	ter-	.	.
4D\	4a\ 4ff#	.	4d/	-re	.	.	4a/	-re	.	.	4ff#\	-re	.	.
4C#\	4a\ 4ee	.	4c#/	no-	.	.	4a/	no-	.	.	4ee\	no-	.	.
4C#\	4a\ 4ee	.	4c#/	-tre	.	.	4a/	-tre	.	.	4ee\	-tre	.	.
4D\	4f#\ 4b 4dd	.	4d/	pri-	.	.	4b/	pri-	.	.	4dd\	pri-	.	.
=11	=11	=11	=11	=11	=11	=11	=11	=11	=11	=11	=11	=11	=11	=11
[2E\	2e/ 2a 2cc#	.	2e/	-è-	.	.	2a/	-è-	.	.	2cc#\	-è-	.	.
4E\]	4e/ 4a 4cc#	.	4e/	-re	.	.	4a/	-re	.	.	4cc#\	-re	.	.
4EE/	4e/ 4b 4dd	.	4e/	O	.	.	4b/	O	.	.	4dd\	O	.	.
4EE/	4e/ 4cc# 4ee	.	4e/	no-	.	.	4cc#\	no-	.	.	4ee\	no-	.	.
4EE/	4e/ 4a 4cc#	.	4a/	-tre	.	.	4a/	-tre	.	.	4cc#\	-tre	.	.
=12	=12	=12	=12	=12	=12	=12	=12	=12	=12	=12	=12	=12	=12	=12
!	!LO:TX:b:i:t=col canto.	!	!	!	!	!	!	!	!	!	!	!	!	!
[2E\	2e^/ 2g# 2b	.	2e/	pè-	.	.	2g#/	pè-	.	.	2b\	pè-	.	.
4E\]	(4e/ 4g# 4b	.	4e/	-re	>	.	4g#/	-re	>	.	4b\	-re	>	.
4EE/ 4E	4e/ 4a 4cc#	.	4e/	va	.	.	4a/	va	.	.	4cc#\	va	.	.
4EE/ 4E	4d/ 4g# 4b	.	4d/	vers	.	.	4g#/	vers	.	.	4b\	vers	.	.
4AA;\ 4A	4c#;/) 4a	.	4c#;/	toi	.	.	4a;/	toi	.	.	4a;/	toi	.	.
=13	=13	=13	=13	=13	=13	=13	=13	=13	=13	=13	=13	=13	=13	=13
!	!	!	!	!	!LO:DY:a	!	!	!	!LO:DY:a	!	!	!	!LO:DY:a	!
2AA\ 2A	2e/ 2cc# 2ee	f	2a/	Et	f	.	2cc#\	Et	f	.	2ee\	Et	f	.
4AA\ 4A	4e/ 4cc# 4ee	.	4a/	du	.	.	4cc#\	du	.	.	4ee\	du	.	.
4EE/ 4E	4e/ 4b 4dd	.	4e/	fond	.	.	4b/	fond	.	.	4dd\	fond	.	.
4EE/ 4E	4e/ 4b 4dd	.	4e/	de	.	.	4b/	de	.	.	4dd\	de	.	.
4AA/	4e/ 4a 4cc#	.	4a/	la	.	.	4a/	la	.	.	4cc#\	la	.	.
!LO:LB:g=original	!LO:LB:g=original	!	!LO:LB:g=original	!	!	!	!LO:LB:g=original	!	!	!	!LO:LB:g=original	!	!	!
=14	=14	=14	=14	=14	=14	=14	=14	=14	=14	=14	=14	=14	=14	=14
2DD/ 2D	2f#\ 2a 2dd 2ff#	sf	2d^>/	ter-	.	.	2a^>/	ter-	.	.	2ff#^\	ter-	.	.
4D/	4a\ 4ff#	.	4d/	-re	.	.	4a/	-re	.	.	4ff#\	-re	.	.
4C#/	4a\ 4ee	.	4c#/	no-	.	.	4a/	no-	.	.	4ee\	no-	.	.
4C#/	4a\ 4ee	.	4c#/	-tre	.	.	4a/	-tre	.	.	4ee\	-tre	.	.
4D/	4f#/ 4b 4dd	.	4d/	pri-	.	.	4b/	pri-	.	.	4dd\	pri-	.	.
=15	=15	=15	=15	=15	=15	=15	=15	=15	=15	=15	=15	=15	=15	=15
[2E\	2e/ 2a 2cc#	.	2e/	-è-	.	.	2a/	-è-	.	.	2cc#\	-è-	.	.
4E\]	4e/ 4a 4cc#	.	4e/	-re	.	.	4a/	-re	.	.	4cc#\	-re	.	.
4EE/ 4E	4b\ 4dd	>	4e/	O	.	.	4b/	O	.	.	4dd\	O	.	.
4EE/ 4E	4cc#\ 4ee	.	4e/	no-	.	.	4cc#/	no-	.	.	4ee\	no-	.	.
4EE/ 4D#X	4a\ 4cc#	]]	4d#X/	-tre	.	.	4a/	-tre	.	.	4cc#\	-tre	.	.
=16	=16	=16	=16	=16	=16	=16	=16	=16	=16	=16	=16	=16	=16	=16
!	!LO:TX:b:i:t=rall col canto.	!	!	!	!	!	!	!	!	!	!	!	!	!
2EE/ 2E	2g#/ 2b	p	2e/	pè-	.	.	2g#/	pè-	.	.	2b\	pè-	.	.
!	!	!	!LO:TX:a:i:t=rall.	!	!	!	!LO:TX:a:i:t=rall.	!	!	!	!LO:TX:a:i:t=rall.	!	!	!
4EE/ 4E	(4e/ 4g# 4b	.	4e/	-re	.	.	4g#/	-re	.	.	4b\	-re	.	.
4EE/ 4E	4e/ 4a 4cc#	.	4e/	va	.	.	4a/	va	.	.	4cc#\	va	.	.
4EE/ 4E	4d/ 4g# 4b	.	4dn/	vers	.	.	4g#/	vers	.	.	4b\	vers	.	.
4AA;</ 4A	4c#;/) 4a	.	4c#;/	toi	.	.	4a;/	toi	.	.	4a;/	toi	.	.
=17||	=17||	=17||	=17||	=17||	=17||	=17||	=17||	=17||	=17||	=17||	=17||	=17||	=17||	=17||
2.E\ 2.B	(4.e/ 4.g#	f	1.r	.	.	.	1.r	.	.	.	1.r	.	.	.
!	!LO:TX:b:B:t=a tempo.	!	!	!	!	!	!	!	!	!	!	!	!	!
.	8b/)	.	.	.	.	.	.	.	.	.	.	.	.	.
.	4ee\	.	.	.	.	.	.	.	.	.	.	.	.	.
4F#\ 4B	4a\ 4dd#X	.	.	.	.	.	.	.	.	.	.	.	.	.
4E\ 4B	4g#\ 4ee	.	.	.	.	.	.	.	.	.	.	.	.	.
4F#\ 4B	4a\ 4dd#	.	.	.	.	.	.	.	.	.	.	.	.	.
!LO:LB:g=original	!LO:LB:g=original	!	!LO:LB:g=original	!	!	!	!LO:LB:g=original	!	!	!	!LO:LB:g=original	!	!	!
=18	=18	=18	=18	=18	=18	=18	=18	=18	=18	=18	=18	=18	=18	=18
4E\ 4B	4g#\ 4ee	.	1.r	.	.	.	1.r	.	.	.	1.r	.	.	.
4D#X\ 4B	4a\ 4ff#	.	.	.	.	.	.	.	.	.	.	.	.	.
2.Dn\ 2.B	2.g#\ 2.b	<	.	.	.	.	.	.	.	.	.	.	.	.
8C#\L 8A	8a\L 8cc#	.	.	.	.	.	.	.	.	.	.	.	.	.
8BB\J 8G#	8e\J 8ddn	[ >	.	.	.	.	.	.	.	.	.	.	.	.
=19	=19	=19	=19	=19	=19	=19	=19	=19	=19	=19	=19	=19	=19	=19
2AA\ 2A	2a/ 2cc#	.	1.r	.	.	.	1.r	.	.	.	1.r	.	.	.
2r	2r	]	.	.	.	.	.	.	.	.	.	.	.	.
2r	2r	.	.	.	.	.	.	.	.	.	.	.	.	.
=20||	=20||	=20||	=20||	=20||	=20||	=20||	=20||	=20||	=20||	=20||	=20||	=20||	=20||	=20||
!	!	!	!	!	!LO:DY:a	!	!	!	!	!	!LO:TX:a:t=2.e STROPHE.	!	!LO:DY:a	!
2AA\ 2A	2c#/ 2a	mf	2c#/	Ta	mf	.	1.r	.	.	.	2a/	Ta	mf	.
4AA\ 4A	4c#/ 4e	.	4c#/	bon-	.	.	.	.	.	.	4e/	bon-	.	.
4r	4e/ 4cc#	.	4a/	-té	.	.	.	.	.	.	4cc#\	-té	.	.
4E\	4d/ 4b	.	4e/	ré-	.	.	.	.	.	.	4b\	ré-	.	.
4A\	4c#/ 4a	.	4c#/	-com-	.	.	.	.	.	.	4a/	-com-	.	.
=21	=21	=21	=21	=21	=21	=21	=21	=21	=21	=21	=21	=21	=21	=21
2EE/ 2E	2e/ 2g# 2b	.	[2e/	-pen-	.	.	2r	.	.	.	[2b\	-pen-	.	.
2EE/ 2E	4e/ 4g# 4b	.	4e/]	-se	.	.	4r	.	.	.	4b\]	-se	.	.
.	4e/ 4b 4dd	.	4b/	o	.	.	4e/	O	.	.	4dd\	o	.	.
2EE/ 2E	4e/ 4a 4cc#	.	4a/	pro-	.	.	4e/	pro-	.	.	4cc#\	pro-	.	.
.	4e/ 4g# 4b	.	4e/	-vi-	.	.	4d/	-vi-	.	.	4b\	-vi-	.	.
=22	=22	=22	=22	=22	=22	=22	=22	=22	=22	=22	=22	=22	=22	=22
2AA\ 2A	2e/ 2a 2cc#	.	2a/	-den-	.	.	2a/	-den-	.	.	2cc#\	-den-	.	.
4AA\ 4A	4e/ 4a 4cc#	.	4a/	-ce	.	.	4a/	-ce	.	.	4cc#\	-ce	.	.
4C#\	4a\ 4ee	>	4cc#\	dùn	.	.	4a/	dùn	.	.	4ee\	dùn	.	.
4C#\	4a\ 4ee	.	4cc#\	peuple	.	.	4a/	peuple	.	.	4ee\	peuple	.	.
4D\	4f#\ 4b 4dd	]]	4b\	im-	.	.	4b/	im-	.	.	4dd\	im-	.	.
!LO:PB:g=original	!LO:PB:g=original	!	!LO:PB:g=original	!	!	!	!LO:PB:g=original	!	!	!	!LO:PB:g=original	!	!	!
=23	=23	=23	=23	=23	=23	=23	=23	=23	=23	=23	=23	=23	=23	=23
!	!LO:TX:b:i:t=rall col canto.	!	!	!	!	!	!	!	!	!	!	!	!	!
[2E\	2e/ 2g# 2b	p	2g#/	-men-	.	.	2e/	-men-	.	.	2b\	-men-	.	.
4E\]	(4e/ 4g# 4b	.	4g#/	-se	.	.	4e/	-se	.	.	4b\	-se	.	.
4EE/ 4E	4e/ 4a 4cc#	.	4a/	la	.	.	4r	.	.	.	4cc#\	la	.	.
!	!	!	!LO:TX:a:i:t=rit.	!	!	!	!	!	!	!	!	!	!	!
4EE/ 4E	4d/ 4g# 4b	.	4e/	fer-	.	.	2r;	.	.	.	4b\	fer-	.	.
4AA;\ 4A	4c#;/) 4a	.	4c#;/	-veur	.	.	.	.	.	.	4a;/	-veur	.	.
=24	=24	=24	=24	=24	=24	=24	=24	=24	=24	=24	=24	=24	=24	=24
!	!	!	!	!	!LO:DY:a	!	!	!	!LO:DY:a	!	!	!	!LO:DY:a	!
2AA\ 2A	2e/ 2cc# 2ee	f	2a/	Saint	f	.	2cc#\	Saint	f	.	2ee\	Saint	f	.
4AA\ 4A	4e/ 4cc# 4ee	.	4a/	Flo-	.	.	4cc#\	Flo-	.	.	4ee\	Flo-	.	.
4AA\ 4E 4G#	4e/ 4b 4dd	.	4e/	-ri-	.	.	4b/	-ri-	.	.	4dd\	-ri-	.	.
4AA\ 4E 4G#	4e/ 4b 4dd	.	4e/	-an	.	.	4b/	-an	.	.	4dd\	-an	.	.
4AA\ 4A	4e/ 4a 4cc#	.	4a/	ta	.	.	4a/	ta	.	.	4cc#\	ta	.	.
=25	=25	=25	=25	=25	=25	=25	=25	=25	=25	=25	=25	=25	=25	=25
2D\	2a\ 2ff#	sf	2d^>/	tra-	.	.	2a^>/	tra-	.	.	2ff#^\	tra-	.	.
4D\	4a\ 4ff#	.	4d/	-ce	.	.	4a/	-ce	.	.	4ff#\	-ce	.	.
4C#\	4a\ 4ee	.	4c#/	que	.	.	4a/	que	.	.	4ee\	que	.	.
4C#\	4a\ 4ee	.	4c#/	rien	.	.	4a/	rien	.	.	4ee\	rien	.	.
4D\	4f#\ 4b 4dd	.	4d/	n`ef-	.	.	4f#/	n`ef-	.	.	4dd\	n`ef-	.	.
=26	=26	=26	=26	=26	=26	=26	=26	=26	=26	=26	=26	=26	=26	=26
[2E\	2e/ 2a 2cc#	.	2e/	-fa-	.	.	2a/	-fa-	.	.	2cc#\	-fa-	.	.
!	!	!	!	!	!	!	!	!	!	!	!	!	!LO:DY:a	!
4E\]	4e/ 4a 4cc#	.	4e/	-ce	.	.	4a/	-ce	.	.	4cc#\	-ce	<	.
4EE/	4e/ 4b 4dd	.	4e/	com-	.	.	4b/	com-	.	.	4dd\	com-	.	.
4EE/	4e/ 4cc# 4ee	.	4e/	-ble	.	.	4cc#\	-ble	.	.	4ee\	-ble	.	.
4EE/	4e/ 4a 4cc#	.	4e/	de	.	.	4a/	de	.	.	4cc#\	de	[	.
!LO:LB:g=original	!LO:LB:g=original	!	!LO:LB:g=original	!	!	!	!LO:LB:g=original	!	!	!	!LO:LB:g=original	!	!	!
=27	=27	=27	=27	=27	=27	=27	=27	=27	=27	=27	=27	=27	=27	=27
!	!LO:TX:b:i:t=col canto.	!	!	!	!	!	!	!	!	!	!	!	!	!
[2E\	2e^/ 2g# 2b	.	2e/	grà-	.	.	2g#/	grà-	.	.	2b\	grà-	.	.
4E\]	(4d/ 4g# 4b	.	4e/	-ce	.	.	4g#/	-ce	.	.	4b\	-ce	.	.
!	!	!	!LO:TX:a:i:t=rit.	!	!	!	!LO:TX:a:i:t=rit.	!	!	!	!LO:TX:a:i:t=rit.	!	!	!
4EE/ 4E	4e/ 4a 4cc#	.	4e/	no-	.	.	4a/	no-	.	.	4cc#\	no-	.	.
4EE/ 4E	4d/ 4g# 4b	.	4e/	-tre	.	.	4g#/	-tre	.	.	4b\	-tre	.	.
4AA;\ 4A	4e;/) 4a	.	4a;/	coeur	.	.	4a;/	coeur	.	.	4a;/	coeur	.	.
=28	=28	=28	=28	=28	=28	=28	=28	=28	=28	=28	=28	=28	=28	=28
!	!	!	!	!	!	!	!	!	!	!	!LO:TX:a:B:t=a tempo	!	!	!
2AA\ 2A	2e/ 2cc# 2ee	f	2a^/	Saint	.	.	2cc#^\	Saint	.	.	2ee^\	Saint	.	.
4AA\ 4A	4e/ 4cc# 4ee	.	4a/	Flo-	.	.	4cc#\	Flo-	.	.	4ee\	Flo-	.	.
4EE/ 4E	4e/ 4b 4dd	.	4e/	-ri-	.	.	4b\	-ri-	.	.	4dd\	-ri-	.	.
4EE/ 4E	4e/ 4b 4dd	.	4e/	-an	.	.	4b\	-an	.	.	4dd\	-an	.	.
4AA/	4e/ 4a 4cc#	.	4a/	ta	.	.	4a/	ta	.	.	4cc#\	ta	.	.
=29	=29	=29	=29	=29	=29	=29	=29	=29	=29	=29	=29	=29	=29	=29
2DD/ 2D	2f#\ 2a 2dd 2ff#	sf	2d^/	tra-	.	.	2a/	tra-	.	.	2ff#^\	tra-	.	.
4D/	4a\ 4ff#	.	4d/	-ce	.	.	4a/	-ce	.	.	4ff#\	-ce	.	.
4C#/	4a\ 4ee	.	4c#/	que	.	.	4a/	que	.	.	4ee\	que	.	.
4C#/	4a\ 4ee	.	4c#/	rien	.	.	4a/	rien	.	.	4ee\	rien	.	.
4D/	4f#\ 4b 4dd	.	4e/	n`ef-	.	.	4b/	n`ef-	.	.	4dd\	n`ef-	.	.
=30	=30	=30	=30	=30	=30	=30	=30	=30	=30	=30	=30	=30	=30	=30
!	!	!	!	!	!LO:DY:a	!	!	!	!LO:DY:a	!	!	!	!LO:DY:a	!
[2E\	2e/ 2a 2cc#	.	2a/	-fa-	<	.	2a/	-fa-	<	.	2cc#\	-fa-	<	.
4E\]	4e/ 4a 4cc#	.	4a/	-ce	.	.	4a/	-ce	.	.	4cc#\	-ce	.	.
4EE/ 4E	4b\ 4dd	>	4a/	com-	.	.	4b/	com-	.	.	4dd\	com-	.	.
!	!	!	!	!	!LO:DY:a	!	!	!	!LO:DY:a	!	!	!	!LO:DY:a	!
4EE/ 4E	4cc#\ 4ee	.	4a/	-ble	[ >	.	4cc#\	-ble	[ >	.	4ee\	-ble	[ >	.
4EE/ 4D#X	4a\ 4cc#	]]	4d#X/	de	]]	.	4a/	de	]]	.	4cc#\	de	]]	.
!LO:LB:g=original	!LO:LB:g=original	!	!LO:LB:g=original	!	!	!	!LO:LB:g=original	!	!	!	!LO:LB:g=original	!	!	!
=31	=31	=31	=31	=31	=31	=31	=31	=31	=31	=31	=31	=31	=31	=31
!	!LO:TX:b:i:t=rall col canto.	!	!	!	!	!	!	!	!	!	!	!	!	!
2EE/ 2E	2g#/ 2b	p	2e/	grâ-	.	.	2g#/	grâ-	.	.	2b/	grâ-	.	.
4EE/ 4E	(4e/ 4g# 4b	.	4e/	-ce	.	.	4g#/	-ce	.	.	4b/	-ce	.	.
!	!	!	!LO:TX:a:i:t=rall.	!	!	!	!LO:TX:a:i:t=rall.	!	!	!	!LO:TX:a:i:t=rall.	!	!	!
4EE/ 4E	4e/ 4a 4cc#	.	4e/	no-	.	.	4a/	no-	.	.	4cc#/	no-	.	.
!	!	!	!	!	!LO:DY:a	!	!	!	!LO:DY:a	!	!	!	!LO:DY:a	!
4EE/ 4E	4d/ 4g# 4b	.	4dn/	-tre	p	.	4g#/	-tre	p	.	4b/	-tre	p	.
4AA;<\ 4A	4c#;/) 4a	.	4c#;/	coeur	.	.	4a;/	coeur	.	.	4a;/	coeur	.	.
=32||	=32||	=32||	=32||	=32||	=32||	=32||	=32||	=32||	=32||	=32||	=32||	=32||	=32||	=32||
!	!LO:TX:b:B:t=a tempo.	!	!	!	!	!	!	!	!	!	!	!	!	!
2.EE\ 2.E	2.e/ 2.g# 2.ee	f	1.r	.	.	.	1.r	.	.	.	1.r	.	.	.
4FF#\ 4F#	4e/ 4a 4dd#X	.	.	.	.	.	.	.	.	.	.	.	.	.
4GG#\ 4G#	4e/ 4b 4ddn	.	.	.	.	.	.	.	.	.	.	.	.	.
4EE\ 4E	4e/ 4g# 4b	.	.	.	.	.	.	.	.	.	.	.	.	.
=33	=33	=33	=33	=33	=33	=33	=33	=33	=33	=33	=33	=33	=33	=33
(4AA\ 4A	(4e/ 4a 4cc#	f	1.r	.	.	.	1.r	.	.	.	1.r	.	.	.
4G#'\	4b'\ 4ee	.	.	.	.	.	.	.	.	.	.	.	.	.
4F#'\	4a'\ 4dd	.	.	.	.	.	.	.	.	.	.	.	.	.
4E'\	4g#'\ 4cc#	.	.	.	.	.	.	.	.	.	.	.	.	.
4D'\	4f#'/ 4b	.	.	.	.	.	.	.	.	.	.	.	.	.
4C#'\)	4e'/) 4a	.	.	.	.	.	.	.	.	.	.	.	.	.
=34	=34	=34	=34	=34	=34	=34	=34	=34	=34	=34	=34	=34	=34	=34
(2D'\	(2f#'/ 2b	<	1.r	.	.	.	1.r	.	.	.	1.r	.	.	.
2D'\	2f#'/ 2b#X	.	.	.	.	.	.	.	.	.	.	.	.	.
2D'\)	2e#X'/) 2cc#	[[	.	.	.	.	.	.	.	.	.	.	.	.
=35	=35	=35	=35	=35	=35	=35	=35	=35	=35	=35	=35	=35	=35	=35
2BB/	2en/ 2g# 2dd	.	1.r	.	.	.	1.r	.	.	.	1.r	.	.	.
1EE; 1E	1e^; 1g# 1bn	sf	.	.	.	.	.	.	.	.	.	.	.	.
!LO:LB:g=original	!LO:LB:g=original	!	!	!LO:LB:g=original	!	!	!	!LO:LB:g=original	!	!	!	!LO:LB:g=original	!	!
==36	==36	==36	==36	==36	==36	==36	==36	==36	==36	==36	==36	==36	==36	==36
*^	*	*	*	*	*	*	*	*	*	*	*	*	*	*
!	!	!	!	!	!	!	!	!	!	!	!	!LO:TX:a:t=3.e STROPHE.	!	!	!
2A/	2AA\	2c#/ 2a	.	1.r	.	.	.	1.r	.	.	.	2a^>/	Ta	.	.
2A/	2AA\	4c#/ 4e	p	.	.	.	.	.	.	.	.	4e/	re-	.	.
.	.	4e/ 4cc#	.	.	.	.	.	.	.	.	.	4cc#\	-li-	.	.
4G#/	2AA\	4d/ 4b	.	.	.	.	.	.	.	.	.	4b\	-que	.	.
4A/	.	4c#/ 4a	.	.	.	.	.	.	.	.	.	4a/	sa-	.	.
*v	*v	*	*	*	*	*	*	*	*	*	*	*	*	*	*
=37	=37	=37	=37	=37	=37	=37	=37	=37	=37	=37	=37	=37	=37	=37
!	!	!	!	!	!	!	!	!	!	!	!	!	!LO:DY:a	!
2EE/ 2E	2e/ 2g# 2b	.	1.r	.	.	.	2g#^>/	Ta	.	.	2b\	-cré	<	.
2EE/ 2E	4e/ 4g# 4b	.	.	.	.	.	4e/	re-	.	.	4b\	de	.	.
.	4e/ 4b 4dd	.	.	.	.	.	4b/	-li-	.	.	4dd\	fle-	[	.
2EE/ 2E	4e/ 4a 4cc#	.	.	.	.	.	4a/	-que	.	.	4cc#\	-urs	.	.
.	4e/ 4g# 4b	.	.	.	.	.	4g#/	sa-	.	.	4b\	pa-	.	.
=38	=38	=38	=38	=38	=38	=38	=38	=38	=38	=38	=38	=38	=38	=38
!	!	!	!	!	!	!	!	!	!	!	!	!	!LO:DY:a	!
2AA\ 2A	2e/ 2a 2cc#	.	([2a/	nous	.	.	2a^/	-cré	.	.	2cc#\	-ré-	<	.
4AA\ 4A	4e/ 4a 4cc#	.	4a/]	.	.	.	4a/	-e	.	.	4dd\	-e	.	.
4C#/	4a\ 4ee	>	4c#/)	.	.	.	4a/	nous	.	.	4ee\	nous	.	.
!	!	!	!	!	!	!	!	!	!	!	!	!	!LO:DY:a	!
4C#/	4a\ 4ee	.	4c#/	fût	.	.	4a/	fût	.	.	4ee\	fût	[ >	.
!	!	!	!	!	!LO:DY:a	!	!	!	!LO:DY:a	!	!	!	!	!
4D\	4f#/ 4b 4dd	]]	4d/	por-	>	.	4b/	por-	>	.	4dd\	por-	]]	.
=39	=39	=39	=39	=39	=39	=39	=39	=39	=39	=39	=39	=39	=39	=39
!	!LO:TX:b:i:t=rall. col canto.	!	!	!	!	!	!	!	!	!	!	!	!LO:DY:a	!
[2E\	2e/ 2g# 2b	p	2e/	-té-	.	.	2g#/	-té-	.	.	2b/	-té-	p	.
!	!	!	!	!	!LO:DY:a	!	!	!	!LO:DY:a	!	!	!	!	!
4E\]	(4e/ 4g# 4b	.	4e/	-e quel	] p	.	4g#/	-e quel	] p	.	4b/	-e quel	.	.
!	!	!	!LO:TX:a:i:t=rit.	!	!	!	!LO:TX:a:i:t=rit.	!	!	!	!LO:TX:a:i:t=rit.	!	!	!
4EE/ 4E	4e/ 4a 4cc#	.	4e/	be-	.	.	4a/	be-	.	.	4cc#\	be-	.	.
4EE/ 4E	4d/ 4g# 4b	.	4d/	-au	.	.	4g#/	-au	.	.	4b\	-au	.	.
4AA;\ 4A	4c#;/) 4a	.	4c#;/	jour	.	.	4a;/	jour	.	.	4a;/	jour	.	.
!LO:LB:g=original	!LO:LB:g=original	!	!LO:LB:g=original	!	!	!	!LO:LB:g=original	!	!	!	!LO:LB:g=original	!	!	!
==40	==40	==40	==40	==40	==40	==40	==40	==40	==40	==40	==40	==40	==40	==40
!	!	!	!	!	!	!	!	!	!LO:DY:a	!	!	!	!LO:DY:a	!
2AA\ 2A	2e\ 2cc# 2ee	f	2a/	La	.	.	2cc#\	La	f	.	2ee\	La	f	.
4AA\ 4A	4e\ 4cc# 4ee	.	4a/	Po-	.	.	4cc#\	Po-	.	.	4ee\	Po-	.	.
4AA\ 4E 4G#	4e\ 4b 4dd	.	4e/	-lo-	.	.	4b\	-lo-	.	.	4dd\	-lo-	.	.
4AA\ 4E 4G#	4e\ 4b 4dd	.	4e/	-gne en	.	.	4b\	-gne en	.	.	4dd\	-gne en	.	.
4AA\ 4D 4A	4e\ 4a 4cc#	.	4a/	pri-	.	.	4a/	pri-	.	.	4cc#\	pri-	.	.
=41	=41	=41	=41	=41	=41	=41	=41	=41	=41	=41	=41	=41	=41	=41
2D/	[2a\ [2ff#	.	[2d^>/	-è-	.	.	[2a/	-è-	.	.	[2ff#^\	-è-	.	.
4D/	4a\] 4ff#]	.	4d/]	.	.	.	4a/]	.	.	.	4ff#\]	.	.	.
4C#/	4a\ 4ee	.	4c#/	-re	.	.	4a/	-re	.	.	4ee\	-re	.	.
4C#/	4a\ 4ee	.	4c#/	sous	.	.	4a/	sous	.	.	4ee\	sous	.	.
4D/	4f#\ 4b 4dd	.	4e/	ta	.	.	4b/	ta	.	.	4dd\	ta	.	.
=42	=42	=42	=42	=42	=42	=42	=42	=42	=42	=42	=42	=42	=42	=42
[2E\	2e/ 2a 2cc#	.	2a/	ban-	.	.	2a/	ban-	.	.	2cc#\	ban-	.	.
4E\]	4e/ 4a 4cc#	.	4a/	-nière	.	.	4a/	-nière	.	.	4cc#\	-nière	.	.
4FF#/	4e/ 4b 4dd	.	4r	.	.	.	4b/	im-	.	.	4dd\	im-	.	.
4EE/	4e/ 4cc# 4ee	.	4r	.	.	.	4cc#\	-plore	.	.	4ee\	-plore	.	.
4FF#/	4e/ 4a 4cc#	.	4e/	-es-	.	.	4a/	es-	.	.	4cc#\	es-	.	.
=43	=43	=43	=43	=43	=43	=43	=43	=43	=43	=43	=43	=43	=43	=43
!	!LO:TX:b:i:t=col canto.	!	!	!	!	!	!	!	!	!	!	!	!	!
[2E\	2e^/ 2g# 2b	.	2e/	-pè-	.	.	2g#/	-pè-	.	.	2b\	-pè-	.	.
4E\]	(4e/ 4g# 4b	.	4e/	-re	.	.	4g#/	-re	.	.	4b\	-re	.	.
4EE/ 4E	4e/ 4a 4cc#	.	4e/	ton	.	.	4a/	ton	.	.	4cc#\	ton	.	.
!	!	!	!LO:TX:a:t=rit.	!	!	!	!LO:TX:a:t=rit.	!	!	!	!LO:TX:a:t=rit.	!	!	!
4EE/ 4E	4d/ 4g# 4b	.	4dn/	se-	.	.	4g#/	se-	.	.	4b\	se-	.	.
4AA;\ 4A	4c#;/) 4cc#	.	4c#;/	-cours	.	.	4a;/	-cours	.	.	4a;/	-cours	.	.
!LO:LB:g=original	!LO:LB:g=original	!	!LO:LB:g=original	!	!	!	!LO:LB:g=original	!	!	!	!LO:LB:g=original	!	!	!
=44	=44	=44	=44	=44	=44	=44	=44	=44	=44	=44	=44	=44	=44	=44
!	!	!	!	!	!LO:DY:a	!	!	!	!	!	!	!	!LO:DY:a	!
2AA/ 2A	2e/ 2cc# 2ee	f	2c#/	La	f	C none	1.r	.	.	.	2ee\	La	f	C none
4AA/ 4A	4e/ 4cc# 4ee	.	4c#/	Po-	.	.	.	.	.	.	4ee\	Po-	.	.
4EE/ 4E	4e/ 4b 4dd	.	4e/	-log-	.	.	.	.	.	.	4dd\	-log-	.	.
4EE/ 4E	4e/ 4b 4dd	.	4e/	-ne	.	.	.	.	.	.	4dd\	-ne	.	.
4AA/	4e/ 4a 4cc#	.	4a/	pri-	.	.	.	.	.	.	4cc#\	pri-	.	.
=45	=45	=45	=45	=45	=45	=45	=45	=45	=45	=45	=45	=45	=45	=45
2DD/ 2D	2f#/ 2a 2dd 2ff#	sf	2d/	-è-	.	.	2a^>/	La	.	C none	2ff#^\	-è-	.	.
4D/	4a\ 4ff#	.	4d/	-re	.	.	4a/	Po-	.	.	4ff#\	-re	.	.
4C#/	4a\ 4ee	.	4r	.	.	.	4cc#/	-log-	.	.	4ee\	sous	.	.
4C#/	4a\ 4ee	.	2r	.	.	.	4cc#/	-ne	.	.	4ee\	ta	.	.
4D/	4f#\ 4b 4dd	.	.	.	.	.	4a/	pri-	.	.	4dd\	ban-	.	.
=46	=46	=46	=46	=46	=46	=46	=46	=46	=46	=46	=46	=46	=46	=46
[2E\	2e/ 2a 2cc#	.	2r	.	.	.	2a/	-è-	.	.	2cc#\	-niè-	.	.
!	!	!	!	!	!	!	!	!	!	!	!	!	!LO:DY:a	!
4E\]	4e/ 4a 4cc#	.	4r	.	.	.	4a/	-re	.	.	4cc#\	-re	<	.
!	!	!	!	!	!LO:DY:a	!	!	!	!	!	!	!	!	!
4EE/ 4E	4b\ 4dd	.	4e/	im-	<	.	4r	.	.	.	4dd\	im-	.	.
4EE/ 4E	4cc#\ 4ee	.	4a/	-lore	.	.	4r	.	.	.	4ee\	-lore	.	.
!	!	!	!	!	!LO:DY:a	!	!	!	!	!	!	!	!LO:DY:a	!
4EE/ 4D#X	4a\ 4cc#	.	4d#X/	es-	[ >	.	4a/	es-	.	.	4cc#\	es-	[ >	.
=47	=47	=47	=47	=47	=47	=47	=47	=47	=47	=47	=47	=47	=47	=47
!	!LO:TX:b:i:t=rall. col canto.	!	!	!	!	!	!	!	!	!	!	!	!	!
2EE/ 2E	2g#/ 2b	p	2e/	-pè-	.	.	2g#/	-pè-	.	.	2b/	-pè-	.	.
4EE/ 4E	(4e/ 4g# 4b	.	4e/	-re	]	.	4a/	-re	.	.	4b/	-re	]	.
!	!	!	!LO:TX:a:i:t=rall.	!	!	!	!LO:TX:a:i:t=rall.	!	!	!	!LO:TX:a:i:t=rall.	!	!	!
4EE/ 4E	4e/ 4a 4cc#	.	4e/	ton	.	.	4a/	ton	.	.	4cc#\	ton	.	.
2EE;</ 2E	2d;/ 2g# 2b	.	2dn;/	se-	.	.	2g#;/	se-	.	.	2b;/	se-	.	.
2AA;</ 2A	2c#;/) 2a	.	2c#;/	-cours	.	.	2a;/	-cours	.	.	2a;/	-cours	.	.
=48	=48	=48	=48	=48	=48	=48	=48	=48	=48	=48	=48	=48	=48	=48
*	*^	*	*	*	*	*	*	*	*	*	*	*	*	*
1EE 1E	1g#^ 1b	2e\	sf	1.r	.	.	.	1.r	.	.	.	1.r	.	.	.
.	.	2d\	.	.	.	.	.	.	.	.	.	.	.	.	.
2AA;<\ 2A	2a;/	2c#\	.	.	.	.	.	.	.	.	.	.	.	.	.
*	*v	*v	*	*	*	*	*	*	*	*	*	*	*	*	*
==	==	==	==	==	==	==	==	==	==	==	==	==	==	==
*-	*-	*-	*-	*-	*-	*-	*-	*-	*-	*-	*-	*-	*-	*-
!!!RDF**kern: > = above
!!!RDF**kern: < = below
!!!system-decoration: [(s1,s2,s3)][(s4,s5)]
!!!ENC: Filip Voros
!!!END: 2022-08-12
!!!ENC: Julita Ruszuk
!!!END: 2022-09-13
